!!!OTL: Schlachtlied.
!!!OTL-incipit: LUSTIG LUSTIG IHR DEUTSCHEN BRUEDER
!!!ARE: Europa, Mitteleuropa, Deutschland, Herzogtum Berg
!!!SCT: Z1140
!!!TXL: @@DE
!!!YEM: Copyright 1995, estate of Helmut Schaffrath.
**kern	**text
*ICvox	*
*M3/4	*
*k[b-]	*
*F:	*
!LO:TX:a:t=Aus dem Bergiſchen.	!
{8f	Lu-
8g	-ſtig,
=1	=1
4.a	luſtig,
8a	ihr
8b-/	deutſchen
8a	.
=2	=2
8aL	Brü-
8gJ	.
4g}	-der,
{8g	le-
8a	-get
=3	=3
4.b-	eu-
8b-	-re
8cc	Sor-
8b-	-gen
=4	=4
8b-L	nie-
8aJ	.
4a}	-der,
{8cc	denn
8cc	es
=5	=5
4.cc	kann
8a	nicht
8dd	an-
8b-	-ders
=6	=6
4g	ſeyn!
4r}	.
{8f	Ʒu
8a	dem
=7	=7
4.cc	hel-
8cc	-len
8dd	Waf-
8cc	-fen-
=8	=8
8b-L	-klan-
8aJ	.
8b-L	-ge,
8ddJ}	.
{8cc	ʒu
8b-	dem
=9	=9
8aL	rü-
8gJ	.
8a/L	-ſti-
8ccJ	.
8b-/	-gen
8a	Ge-
=10	=10
8gL	-ſan-
8ccJ	.
4cc;}	-ge
{8g	trin-
8g	-ket
=11	=11
4.g	noch
8a	ein
8b-/	gut
8cc	Glas
=12	=12
4.a;	Wein!
8r}	.
==	==
!!!AGN: Vaterland und Wehr
!!!ONB: ESAC (Essen Associative Code) Database: ZUCCAL
!!!AMT: simple triple
!!!AIN: vox
!!!EED: Helmut Schaffrath
!!!EEV: 1.0
!!!GTL: IV. Vaterland und Wehr.
!!!URL-scan: https://www.digitale-sammlungen.de/de/view/bsb11160573?page=310
!!!ENC: Anna Maria Matuszewska
!!!EEV: 2025/02/04
*-	*-
